images/content/johnson-solids/gyroelongated-square-pyramid.svg

<?xml version="1.0" encoding="UTF-8"?>
<svg xmlns="http://www.w3.org/2000/svg" xmlns:xlink="http://www.w3.org/1999/xlink" width="183pt" height="200pt" viewBox="0 0 183 200" version="1.2">
<g id="surface1">
<path style=" stroke:none;fill-rule:nonzero;fill:rgb(78.318787%,43.505859%,39.501953%);fill-opacity:1;" d="M 86.496094 83.324219 L 46.359375 39.082031 L 149.753906 11.453125 "/>
<path style="fill:none;stroke-width:6.86;stroke-linecap:round;stroke-linejoin:round;stroke:rgb(0%,0%,0%);stroke-opacity:1;stroke-miterlimit:10;" d="M 864.960938 1166.757812 L 463.59375 1609.179688 L 1497.539062 1885.46875 Z M 864.960938 1166.757812 " transform="matrix(0.1,0,0,-0.1,0,200)"/>
<path style=" stroke:none;fill-rule:nonzero;fill:rgb(58.984375%,44.40918%,65.039062%);fill-opacity:1;" d="M 178.027344 119.152344 L 86.496094 83.324219 L 149.753906 11.453125 "/>
<path style="fill:none;stroke-width:6.86;stroke-linecap:round;stroke-linejoin:round;stroke:rgb(0%,0%,0%);stroke-opacity:1;stroke-miterlimit:10;" d="M 1780.273438 808.476562 L 864.960938 1166.757812 L 1497.539062 1885.46875 Z M 1780.273438 808.476562 " transform="matrix(0.1,0,0,-0.1,0,200)"/>
<path style=" stroke:none;fill-rule:nonzero;fill:rgb(87.304688%,57.421875%,47.605896%);fill-opacity:1;" d="M 86.496094 83.324219 L 5.894531 136.929688 L 46.359375 39.082031 "/>
<path style="fill:none;stroke-width:6.86;stroke-linecap:round;stroke-linejoin:round;stroke:rgb(0%,0%,0%);stroke-opacity:1;stroke-miterlimit:10;" d="M 864.960938 1166.757812 L 58.945312 630.703125 L 463.59375 1609.179688 Z M 864.960938 1166.757812 " transform="matrix(0.1,0,0,-0.1,0,200)"/>
<path style=" stroke:none;fill-rule:nonzero;fill:rgb(79.296875%,68.164062%,74.21875%);fill-opacity:1;" d="M 86.496094 83.324219 L 97.59375 187.078125 L 5.894531 136.929688 "/>
<path style="fill:none;stroke-width:6.86;stroke-linecap:round;stroke-linejoin:round;stroke:rgb(0%,0%,0%);stroke-opacity:1;stroke-miterlimit:10;" d="M 864.960938 1166.757812 L 975.9375 129.21875 L 58.945312 630.703125 Z M 864.960938 1166.757812 " transform="matrix(0.1,0,0,-0.1,0,200)"/>
<path style=" stroke:none;fill-rule:nonzero;fill:rgb(62.109375%,52.734375%,72.65625%);fill-opacity:1;" d="M 178.027344 119.152344 L 97.59375 187.078125 L 86.496094 83.324219 "/>
<path style="fill:none;stroke-width:6.86;stroke-linecap:round;stroke-linejoin:round;stroke:rgb(0%,0%,0%);stroke-opacity:1;stroke-miterlimit:10;" d="M 1780.273438 808.476562 L 975.9375 129.21875 L 864.960938 1166.757812 Z M 1780.273438 808.476562 " transform="matrix(0.1,0,0,-0.1,0,200)"/>
<path style="fill-rule:nonzero;fill:rgb(0%,0%,0%);fill-opacity:1;stroke-width:6.86;stroke-linecap:round;stroke-linejoin:round;stroke:rgb(0%,0%,0%);stroke-opacity:1;stroke-miterlimit:10;" d="M 376.992188 588.085938 L 58.945312 630.703125 L 975.9375 129.21875 " transform="matrix(0.1,0,0,-0.1,0,200)"/>
<path style=" stroke:none;fill-rule:nonzero;fill:rgb(27.587891%,46.508789%,86.521912%);fill-opacity:1;" d="M 178.027344 119.152344 L 141.960938 198.902344 L 97.59375 187.078125 "/>
<path style="fill:none;stroke-width:6.86;stroke-linecap:round;stroke-linejoin:round;stroke:rgb(0%,0%,0%);stroke-opacity:1;stroke-miterlimit:10;" d="M 1780.273438 808.476562 L 1419.609375 10.976562 L 975.9375 129.21875 Z M 1780.273438 808.476562 " transform="matrix(0.1,0,0,-0.1,0,200)"/>
<path style="fill-rule:nonzero;fill:rgb(0%,0%,0%);fill-opacity:1;stroke-width:6.86;stroke-linecap:round;stroke-linejoin:round;stroke:rgb(0%,0%,0%);stroke-opacity:1;stroke-miterlimit:10;" d="M 975.9375 129.21875 L 1419.609375 10.976562 L 376.992188 588.085938 " transform="matrix(0.1,0,0,-0.1,0,200)"/>
<path style=" stroke:none;fill-rule:nonzero;fill:rgb(95.506287%,89.84375%,51.756287%);fill-opacity:1;" d="M 148.824219 77.054688 L 178.027344 119.152344 L 149.753906 11.453125 "/>
<path style="fill:none;stroke-width:6.86;stroke-linecap:round;stroke-linejoin:round;stroke:rgb(0%,0%,0%);stroke-opacity:1;stroke-miterlimit:10;" d="M 1488.242188 1229.453125 L 1780.273438 808.476562 L 1497.539062 1885.46875 Z M 1488.242188 1229.453125 " transform="matrix(0.1,0,0,-0.1,0,200)"/>
<path style=" stroke:none;fill-rule:nonzero;fill:rgb(99.414062%,76.367188%,47.801208%);fill-opacity:1;" d="M 148.824219 77.054688 L 141.960938 198.902344 L 178.027344 119.152344 "/>
<path style="fill:none;stroke-width:6.86;stroke-linecap:round;stroke-linejoin:round;stroke:rgb(0%,0%,0%);stroke-opacity:1;stroke-miterlimit:10;" d="M 1488.242188 1229.453125 L 1419.609375 10.976562 L 1780.273438 808.476562 Z M 1488.242188 1229.453125 " transform="matrix(0.1,0,0,-0.1,0,200)"/>
<path style=" stroke:none;fill-rule:nonzero;fill:rgb(1.400757%,12.597656%,63.671875%);fill-opacity:1;" d="M 46.359375 39.082031 L 5.894531 136.929688 L 37.699219 141.191406 "/>
<path style="fill:none;stroke-width:6.86;stroke-linecap:round;stroke-linejoin:round;stroke:rgb(0%,0%,0%);stroke-opacity:1;stroke-miterlimit:10;" d="M 463.59375 1609.179688 L 58.945312 630.703125 L 376.992188 588.085938 Z M 463.59375 1609.179688 " transform="matrix(0.1,0,0,-0.1,0,200)"/>
<path style=" stroke:none;fill-rule:nonzero;fill:rgb(65.429688%,75.193787%,92.1875%);fill-opacity:1;" d="M 46.359375 39.082031 L 148.824219 77.054688 L 149.753906 11.453125 "/>
<path style="fill:none;stroke-width:6.86;stroke-linecap:round;stroke-linejoin:round;stroke:rgb(0%,0%,0%);stroke-opacity:1;stroke-miterlimit:10;" d="M 463.59375 1609.179688 L 1488.242188 1229.453125 L 1497.539062 1885.46875 Z M 463.59375 1609.179688 " transform="matrix(0.1,0,0,-0.1,0,200)"/>
<path style=" stroke:none;fill-rule:nonzero;fill:rgb(63.867188%,63.867188%,83.201599%);fill-opacity:1;" d="M 46.359375 39.082031 L 37.699219 141.191406 L 148.824219 77.054688 "/>
<path style="fill:none;stroke-width:6.86;stroke-linecap:round;stroke-linejoin:round;stroke:rgb(0%,0%,0%);stroke-opacity:1;stroke-miterlimit:10;" d="M 463.59375 1609.179688 L 376.992188 588.085938 L 1488.242188 1229.453125 Z M 463.59375 1609.179688 " transform="matrix(0.1,0,0,-0.1,0,200)"/>
<path style=" stroke:none;fill-rule:nonzero;fill:rgb(75.976562%,58.396912%,65.818787%);fill-opacity:1;" d="M 148.824219 77.054688 L 37.699219 141.191406 L 141.960938 198.902344 "/>
<path style="fill:none;stroke-width:6.86;stroke-linecap:round;stroke-linejoin:round;stroke:rgb(0%,0%,0%);stroke-opacity:1;stroke-miterlimit:10;" d="M 1488.242188 1229.453125 L 376.992188 588.085938 L 1419.609375 10.976562 Z M 1488.242188 1229.453125 " transform="matrix(0.1,0,0,-0.1,0,200)"/>
</g>
</svg>

<svg xmlns="http://www.w3.org/2000/svg" width="244" height="200pt" viewBox="0 0 183 200" version="1.2"><path style="stroke:none;fill-rule:nonzero;fill:#c86f65;fill-opacity:1" d="M86.496 83.324 46.36 39.082l103.395-27.629"/><path style="fill:none;stroke-width:6.86;stroke-linecap:round;stroke-linejoin:round;stroke:#000;stroke-opacity:1;stroke-miterlimit:10" d="M864.96 1166.758 463.595 1609.18l1033.945 276.289Zm0 0" transform="matrix(.1 0 0 -.1 0 200)"/><path style="stroke:none;fill-rule:nonzero;fill:#9671a6;fill-opacity:1" d="m178.027 119.152-91.53-35.828 63.257-71.87"/><path style="fill:none;stroke-width:6.86;stroke-linecap:round;stroke-linejoin:round;stroke:#000;stroke-opacity:1;stroke-miterlimit:10" d="m1780.273 808.477-915.312 358.28 632.578 718.712Zm0 0" transform="matrix(.1 0 0 -.1 0 200)"/><path style="stroke:none;fill-rule:nonzero;fill:#df9279;fill-opacity:1" d="M86.496 83.324 5.895 136.93l40.464-97.848"/><path style="fill:none;stroke-width:6.86;stroke-linecap:round;stroke-linejoin:round;stroke:#000;stroke-opacity:1;stroke-miterlimit:10" d="M864.96 1166.758 58.946 630.703l404.649 978.477Zm0 0" transform="matrix(.1 0 0 -.1 0 200)"/><path style="stroke:none;fill-rule:nonzero;fill:#caaebd;fill-opacity:1" d="m86.496 83.324 11.098 103.754-91.7-50.148"/><path style="fill:none;stroke-width:6.86;stroke-linecap:round;stroke-linejoin:round;stroke:#000;stroke-opacity:1;stroke-miterlimit:10" d="m864.96 1166.758 110.977-1037.54L58.946 630.704Zm0 0" transform="matrix(.1 0 0 -.1 0 200)"/><path style="stroke:none;fill-rule:nonzero;fill:#9e86b9;fill-opacity:1" d="m178.027 119.152-80.433 67.926L86.496 83.324"/><path style="fill:none;stroke-width:6.86;stroke-linecap:round;stroke-linejoin:round;stroke:#000;stroke-opacity:1;stroke-miterlimit:10" d="M1780.273 808.477 975.938 129.219 864.96 1166.758Zm0 0" transform="matrix(.1 0 0 -.1 0 200)"/><path style="fill-rule:nonzero;fill:#000;fill-opacity:1;stroke-width:6.86;stroke-linecap:round;stroke-linejoin:round;stroke:#000;stroke-opacity:1;stroke-miterlimit:10" d="M376.992 588.086 58.945 630.703 975.937 129.22" transform="matrix(.1 0 0 -.1 0 200)"/><path style="stroke:none;fill-rule:nonzero;fill:#4677dd;fill-opacity:1" d="m178.027 119.152-36.066 79.75-44.367-11.824"/><path style="fill:none;stroke-width:6.86;stroke-linecap:round;stroke-linejoin:round;stroke:#000;stroke-opacity:1;stroke-miterlimit:10" d="m1780.273 808.477-360.664-797.5-443.671 118.242Zm0 0" transform="matrix(.1 0 0 -.1 0 200)"/><path style="fill-rule:nonzero;fill:#000;fill-opacity:1;stroke-width:6.86;stroke-linecap:round;stroke-linejoin:round;stroke:#000;stroke-opacity:1;stroke-miterlimit:10" d="m975.938 129.219 443.671-118.242L376.992 588.086" transform="matrix(.1 0 0 -.1 0 200)"/><path style="stroke:none;fill-rule:nonzero;fill:#f4e584;fill-opacity:1" d="m148.824 77.055 29.203 42.097-28.273-107.699"/><path style="fill:none;stroke-width:6.86;stroke-linecap:round;stroke-linejoin:round;stroke:#000;stroke-opacity:1;stroke-miterlimit:10" d="m1488.242 1229.453 292.031-420.976-282.734 1076.992Zm0 0" transform="matrix(.1 0 0 -.1 0 200)"/><path style="stroke:none;fill-rule:nonzero;fill:#fec37a;fill-opacity:1" d="m148.824 77.055-6.863 121.847 36.066-79.75"/><path style="fill:none;stroke-width:6.86;stroke-linecap:round;stroke-linejoin:round;stroke:#000;stroke-opacity:1;stroke-miterlimit:10" d="M1488.242 1229.453 1419.61 10.977l360.664 797.5Zm0 0" transform="matrix(.1 0 0 -.1 0 200)"/><path style="stroke:none;fill-rule:nonzero;fill:#0420a2;fill-opacity:1" d="M46.36 39.082 5.894 136.93l31.804 4.261"/><path style="fill:none;stroke-width:6.86;stroke-linecap:round;stroke-linejoin:round;stroke:#000;stroke-opacity:1;stroke-miterlimit:10" d="M463.594 1609.18 58.945 630.703l318.047-42.617Zm0 0" transform="matrix(.1 0 0 -.1 0 200)"/><path style="stroke:none;fill-rule:nonzero;fill:#a7c0eb;fill-opacity:1" d="m46.36 39.082 102.464 37.973.93-65.602"/><path style="fill:none;stroke-width:6.86;stroke-linecap:round;stroke-linejoin:round;stroke:#000;stroke-opacity:1;stroke-miterlimit:10" d="m463.594 1609.18 1024.648-379.727 9.297 656.016Zm0 0" transform="matrix(.1 0 0 -.1 0 200)"/><path style="stroke:none;fill-rule:nonzero;fill:#a3a3d4;fill-opacity:1" d="m46.36 39.082-8.66 102.11 111.124-64.137"/><path style="fill:none;stroke-width:6.86;stroke-linecap:round;stroke-linejoin:round;stroke:#000;stroke-opacity:1;stroke-miterlimit:10" d="M463.594 1609.18 376.992 588.086l1111.25 641.367Zm0 0" transform="matrix(.1 0 0 -.1 0 200)"/><path style="stroke:none;fill-rule:nonzero;fill:#c295a8;fill-opacity:1" d="M148.824 77.055 37.7 141.19l104.262 57.711"/><path style="fill:none;stroke-width:6.86;stroke-linecap:round;stroke-linejoin:round;stroke:#000;stroke-opacity:1;stroke-miterlimit:10" d="M1488.242 1229.453 376.992 588.086 1419.61 10.976Zm0 0" transform="matrix(.1 0 0 -.1 0 200)"/></svg>
